webroot/img/new-desgin/social-media/ant-design_youtube-outlined.svg

<svg width="81" height="80" viewBox="0 0 81 80" fill="none" xmlns="http://www.w3.org/2000/svg">
<g id="ant-design:youtube-outlined">
<path id="Vector" d="M75.4336 39.7832C75.4336 39.6113 75.4336 39.416 75.4258 39.1895C75.418 38.5566 75.4024 37.8457 75.3867 37.0879C75.3242 34.9082 75.2149 32.7363 75.043 30.6895C74.8086 27.8691 74.4649 25.5176 73.9961 23.752C73.5014 21.9094 72.5318 20.2289 71.1842 18.8785C69.8365 17.5281 68.158 16.555 66.3164 16.0566C64.1055 15.4629 59.7773 15.0957 53.6836 14.8691C50.7852 14.7598 47.6836 14.6895 44.582 14.6504C43.4961 14.6348 42.4883 14.627 41.582 14.6191H39.2852C38.3789 14.627 37.3711 14.6348 36.2852 14.6504C33.1836 14.6895 30.082 14.7598 27.1836 14.8691C21.0898 15.1035 16.7539 15.4707 14.5508 16.0566C12.7086 16.5538 11.0294 17.5264 9.6816 18.877C8.33374 20.2276 7.36453 21.9088 6.87109 23.752C6.39453 25.5176 6.05859 27.8691 5.82422 30.6895C5.65234 32.7363 5.54297 34.9082 5.48047 37.0879C5.45703 37.8457 5.44922 38.5566 5.44141 39.1895C5.44141 39.416 5.43359 39.6113 5.43359 39.7832V40.2207C5.43359 40.3926 5.43359 40.5879 5.44141 40.8145C5.44922 41.4473 5.46484 42.1582 5.48047 42.916C5.54297 45.0957 5.65234 47.2676 5.82422 49.3145C6.05859 52.1348 6.40234 54.4863 6.87109 56.252C7.87109 59.9941 10.8086 62.9473 14.5508 63.9473C16.7539 64.541 21.0898 64.9082 27.1836 65.1348C30.082 65.2441 33.1836 65.3145 36.2852 65.3535C37.3711 65.3691 38.3789 65.377 39.2852 65.3848H41.582C42.4883 65.377 43.4961 65.3691 44.582 65.3535C47.6836 65.3145 50.7852 65.2441 53.6836 65.1348C59.7773 64.9004 64.1133 64.5332 66.3164 63.9473C70.0586 62.9473 72.9961 60.002 73.9961 56.252C74.4727 54.4863 74.8086 52.1348 75.043 49.3145C75.2149 47.2676 75.3242 45.0957 75.3867 42.916C75.4102 42.1582 75.418 41.4473 75.4258 40.8145C75.4258 40.5879 75.4336 40.3926 75.4336 40.2207V39.7832ZM69.8086 40.1895C69.8086 40.3535 69.8086 40.5332 69.8008 40.7441C69.793 41.3535 69.7774 42.0254 69.7617 42.752C69.707 44.8301 69.5977 46.9082 69.4336 48.8379C69.2227 51.3535 68.9258 53.416 68.5586 54.7988C68.0742 56.6035 66.6523 58.0332 64.8555 58.5098C63.2148 58.9473 59.082 59.2988 53.4648 59.5098C50.6211 59.6191 47.5586 59.6895 44.5039 59.7285C43.4336 59.7441 42.4414 59.752 41.5508 59.752H39.3164L36.3633 59.7285C33.3086 59.6895 30.2539 59.6191 27.4023 59.5098C21.7852 59.291 17.6445 58.9473 16.0117 58.5098C14.2148 58.0254 12.793 56.6035 12.3086 54.7988C11.9414 53.416 11.6445 51.3535 11.4336 48.8379C11.2695 46.9082 11.168 44.8301 11.1055 42.752C11.082 42.0254 11.0742 41.3457 11.0664 40.7441C11.0664 40.5332 11.0586 40.3457 11.0586 40.1895V39.8145C11.0586 39.6504 11.0586 39.4707 11.0664 39.2598C11.0742 38.6504 11.0898 37.9785 11.1055 37.252C11.1602 35.1738 11.2695 33.0957 11.4336 31.166C11.6445 28.6504 11.9414 26.5879 12.3086 25.2051C12.793 23.4004 14.2148 21.9707 16.0117 21.4941C17.6523 21.0566 21.7852 20.7051 27.4023 20.4941C30.2461 20.3848 33.3086 20.3145 36.3633 20.2754C37.4336 20.2598 38.4258 20.252 39.3164 20.252H41.5508L44.5039 20.2754C47.5586 20.3145 50.6133 20.3848 53.4648 20.4941C59.082 20.7129 63.2227 21.0566 64.8555 21.4941C66.6523 21.9785 68.0742 23.4004 68.5586 25.2051C68.9258 26.5879 69.2227 28.6504 69.4336 31.166C69.5977 33.0957 69.6992 35.1738 69.7617 37.252C69.7852 37.9785 69.793 38.6582 69.8008 39.2598C69.8008 39.4707 69.8086 39.6582 69.8086 39.8145V40.1895ZM33.4805 50.4707L51.6055 39.9238L33.4805 29.5332V50.4707Z" fill="url(#paint0_linear_421_9352)"/>
</g>
<defs>
<linearGradient id="paint0_linear_421_9352" x1="11.99" y1="19.2564" x2="52.5918" y2="89.6136" gradientUnits="userSpaceOnUse">
<stop stop-color="#007BC4"/>
<stop offset="1" stop-color="#0B4C97"/>
</linearGradient>
</defs>
</svg>

<svg xmlns="http://www.w3.org/2000/svg" width="81" height="80" fill="none"><path fill="url(#a)" d="M75.434 39.783c0-.172 0-.367-.008-.593-.008-.633-.024-1.344-.04-2.102-.062-2.18-.171-4.352-.343-6.399-.234-2.82-.578-5.171-1.047-6.937a10.9 10.9 0 0 0-7.68-7.695c-2.21-.594-6.539-.961-12.632-1.188a368 368 0 0 0-9.102-.219c-1.086-.015-2.094-.023-3-.03h-2.297c-.906.007-1.914.015-3 .03a368 368 0 0 0-9.101.22c-6.094.234-10.43.6-12.633 1.187a10.886 10.886 0 0 0-7.68 7.695c-.476 1.766-.812 4.117-1.047 6.938a117.62 117.62 0 0 0-.344 6.398c-.023.758-.03 1.469-.039 2.102 0 .226-.007.421-.007.593v.438c0 .172 0 .367.007.594.008.632.024 1.343.04 2.101.062 2.18.171 4.352.343 6.399.235 2.82.578 5.171 1.047 6.937 1 3.742 3.938 6.695 7.68 7.695 2.203.594 6.539.961 12.633 1.188 2.898.11 6 .18 9.101.218 1.086.016 2.094.024 3 .032h2.297c.906-.008 1.914-.016 3-.032a367.51 367.51 0 0 0 9.102-.218c6.093-.235 10.43-.602 12.632-1.188 3.743-1 6.68-3.945 7.68-7.695.477-1.766.813-4.117 1.047-6.938.172-2.046.281-4.218.344-6.398.023-.758.031-1.469.039-2.101 0-.227.008-.422.008-.594v-.438Zm-5.625.407c0 .163 0 .343-.008.554-.008.61-.024 1.281-.04 2.008a105.61 105.61 0 0 1-.327 6.086c-.211 2.515-.508 4.578-.875 5.96a5.257 5.257 0 0 1-3.703 3.712c-1.641.437-5.774.789-11.391 1-2.844.11-5.906.18-8.961.218-1.07.016-2.063.024-2.953.024h-2.235l-2.953-.024a355.9 355.9 0 0 1-8.96-.218c-5.618-.219-9.758-.563-11.391-1a5.27 5.27 0 0 1-3.703-3.711c-.368-1.383-.664-3.446-.875-5.961-.164-1.93-.266-4.008-.329-6.086-.023-.727-.03-1.406-.039-2.008 0-.21-.007-.398-.007-.554v-.375c0-.165 0-.344.007-.555.008-.61.024-1.282.04-2.008.054-2.078.164-4.156.328-6.086.21-2.516.507-4.578.875-5.96a5.257 5.257 0 0 1 3.703-3.712c1.64-.437 5.773-.789 11.39-1 2.844-.11 5.907-.18 8.961-.219 1.07-.015 2.063-.023 2.953-.023h2.235l2.953.023c3.055.04 6.11.11 8.96.22 5.618.218 9.759.562 11.392 1a5.27 5.27 0 0 1 3.703 3.71c.367 1.383.664 3.445.875 5.961.164 1.93.265 4.008.328 6.086.023.726.031 1.406.039 2.008 0 .21.008.398.008.555v.375ZM33.48 50.47l18.124-10.546-18.124-10.39V50.47Z"/><defs><linearGradient id="a" x1="11.99" x2="52.592" y1="19.256" y2="89.614" gradientUnits="userSpaceOnUse"><stop stop-color="#007BC4"/><stop offset="1" stop-color="#0B4C97"/></linearGradient></defs></svg>
